X: 101
T:Rakish Paddy
M:C
L:1/8
S:M.Brcher
B:Max Brcher vol.2
K:CLyd
c2 (3ccc cBAB| cBAG FDDB| Add^c defe| dcAG FGAB|
cccB cBAB| cBAG FDDE| DEFG ABcA| dcAG FD (3DDD:|
|: eg ~g2 ag ~g2 | eggf ed^cd| ea ~a2 baag| eaag  ed^cd|
eg ~g2 ag ~g2 egge defg | afge ~f2 e^c| dcAG FD (3DDD :|
